public/img/Tools/NETWORK.svg

<?xml version="1.0" encoding="UTF-8"?>
<svg width="101px" height="114px" viewBox="0 0 101 114" version="1.1" xmlns="http://www.w3.org/2000/svg" xmlns:xlink="http://www.w3.org/1999/xlink">
    <!-- Generator: Sketch 42 (36781) - http://www.bohemiancoding.com/sketch -->
    <title>NETWORK</title>
    <desc>Created with Sketch.</desc>
    <defs>
        <path d="M9.009,1.496 C7.698,2.415 6.808,3.832 6.505,5.478 L6.341,6.454 C6.09,7.983 6.409,9.536 7.241,10.833 L9.017,13.676 L6.35,14.472 C4.408,15.042 2.805,16.357 1.833,18.178 L1.797,18.244 L1.756,18.286 L0.97,20.428 C0.675,21.286 0.813,22.271 1.321,23.012 C1.867,23.769 2.733,24.186 3.641,24.186 L21.75,24.186 C22.668,24.186 23.524,23.773 24.046,23.018 C24.585,22.257 24.719,21.32 24.404,20.453 L23.641,18.313 L23.613,18.23 L23.58,18.153 C22.655,16.402 21.011,15.047 19.076,14.435 L16.409,13.638 L18.081,10.973 C18.966,9.606 19.275,7.85 18.912,6.277 L18.651,5.155 C18.365,3.809 17.539,2.514 16.403,1.615 C15.285,0.785 13.942,0.328 12.622,0.328 C11.305,0.328 10.06,0.729 9.009,1.496 Z" id="path-1"></path>
        <path d="M6.658,1.205 C5.6,1.946 4.882,3.089 4.638,4.418 L4.505,5.204 C4.304,6.437 4.561,7.69 5.231,8.737 L6.664,11.029 L4.512,11.672 C2.947,12.131 1.653,13.192 0.869,14.661 L0.84,14.714 L0.808,14.748 L0.174,16.476 C-0.064,17.168 0.046,17.962 0.457,18.56 C0.897,19.17 1.596,19.506 2.328,19.506 L16.935,19.506 C17.675,19.506 18.366,19.174 18.787,18.565 C19.222,17.951 19.329,17.196 19.076,16.496 L18.46,14.77 L18.438,14.703 L18.412,14.641 C17.665,13.229 16.338,12.135 14.777,11.641 L12.626,10.998 L13.975,8.849 C14.689,7.746 14.939,6.33 14.645,5.062 L14.435,4.157 C14.204,3.071 13.539,2.026 12.621,1.3 C11.72,0.631 10.637,0.263 9.572,0.263 C8.51,0.263 7.506,0.586 6.658,1.205 Z" id="path-3"></path>
        <path d="M6.786,1.205 C5.728,1.946 5.01,3.089 4.766,4.418 L4.633,5.204 C4.432,6.437 4.688,7.69 5.36,8.737 L6.793,11.029 L4.641,11.672 C3.075,12.131 1.78,13.192 0.997,14.661 L0.968,14.714 L0.935,14.748 L0.302,16.476 C0.063,17.168 0.175,17.962 0.584,18.56 C1.025,19.17 1.724,19.506 2.456,19.506 L17.062,19.506 C17.802,19.506 18.494,19.174 18.916,18.565 C19.349,17.951 19.457,17.196 19.204,16.496 L18.588,14.77 L18.565,14.703 L18.539,14.641 C17.792,13.229 16.467,12.135 14.905,11.641 L12.755,10.998 L14.103,8.849 C14.817,7.746 15.067,6.33 14.774,5.062 L14.562,4.157 C14.332,3.071 13.667,2.026 12.75,1.3 C11.848,0.631 10.765,0.263 9.7,0.263 C8.638,0.263 7.634,0.586 6.786,1.205 Z" id="path-5"></path>
        <path d="M5.239,1.448 C4.488,1.974 3.979,2.785 3.806,3.727 L3.712,4.285 C3.569,5.16 3.751,6.048 4.227,6.791 L5.243,8.417 L3.717,8.873 C2.607,9.198 1.689,9.952 1.132,10.994 L1.112,11.031 L1.089,11.055 L0.639,12.281 C0.47,12.772 0.549,13.335 0.84,13.76 C1.152,14.192 1.648,14.431 2.167,14.431 L12.529,14.431 C13.054,14.431 13.544,14.194 13.843,13.763 C14.151,13.328 14.227,12.791 14.047,12.295 L13.611,11.071 L13.595,11.024 L13.577,10.979 C13.047,9.977 12.106,9.202 10.998,8.852 L9.473,8.396 L10.429,6.871 C10.936,6.088 11.113,5.083 10.905,4.184 L10.755,3.542 C10.592,2.771 10.12,2.031 9.469,1.516 C8.83,1.042 8.061,0.78 7.305,0.78 C6.552,0.78 5.84,1.009 5.239,1.448 Z" id="path-7"></path>
        <path d="M6.722,1.526 C5.664,2.267 4.946,3.411 4.702,4.738 L4.569,5.525 C4.368,6.759 4.624,8.01 5.296,9.058 L6.728,11.349 L4.576,11.993 C3.01,12.452 1.717,13.513 0.933,14.982 L0.904,15.035 L0.871,15.069 L0.237,16.796 C-0.001,17.489 0.111,18.283 0.521,18.881 C0.96,19.492 1.66,19.827 2.392,19.827 L16.998,19.827 C17.739,19.827 18.43,19.494 18.851,18.886 C19.285,18.271 19.393,17.516 19.139,16.817 L18.525,15.091 L18.502,15.024 L18.475,14.962 C17.729,13.549 16.402,12.456 14.841,11.962 L12.691,11.32 L14.039,9.17 C14.753,8.067 15.003,6.651 14.71,5.383 L14.499,4.478 C14.268,3.392 13.603,2.348 12.685,1.621 C11.784,0.953 10.701,0.584 9.635,0.584 C8.573,0.584 7.57,0.908 6.722,1.526 Z" id="path-9"></path>
    </defs>
    <g id="Page-1" stroke="none" stroke-width="1" fill="none" fill-rule="evenodd">
        <g id="Landing-Copy-3" transform="translate(-381.000000, -2305.000000)">
            <g id="NETWORK" transform="translate(381.000000, 2305.000000)">
                <polygon id="Fill-1" fill="#00A9C7" points="100.1517 85.0794 50.1507 113.4124 0.1517 85.0794 0.1517 28.4124 50.1507 0.0794 100.1517 28.4124"></polygon>
                <path d="M41.6411,89.7854 C40.7341,89.7854 39.8661,89.3694 39.3211,88.6124 C38.8131,87.8704 38.6751,86.8864 38.9711,86.0274 L39.7561,83.8864 L39.7961,83.8434 L39.8331,83.7784 C40.8041,81.9564 42.4081,80.6414 44.3491,80.0714 L47.0171,79.2754 L45.2411,76.4334 C44.4091,75.1354 44.0911,73.5824 44.3401,72.0534 L44.5051,71.0784 C44.8081,69.4324 45.6971,68.0144 47.0091,67.0964 C48.0611,66.3294 49.3051,65.9284 50.6211,65.9284 C51.9421,65.9284 53.2851,66.3844 54.4021,67.2144 C55.5401,68.1144 56.3651,69.4094 56.6511,70.7554 L56.9121,71.8774 C57.2761,73.4494 56.9661,75.2054 56.0811,76.5724 L54.4091,79.2374 L57.0751,80.0344 C59.0111,80.6464 60.6551,82.0024 61.5801,83.7534 L61.6141,83.8304 L61.6411,83.9134 L62.4041,86.0524 C62.7181,86.9204 62.5851,87.8564 62.0471,88.6184 C61.5241,89.3724 60.6671,89.7854 59.7501,89.7854 L41.6411,89.7854 Z" id="Fill-2" fill="#FFFFFF"></path>
                <g id="Group-7" transform="translate(38.000000, 65.600000)">
                    <mask id="mask-2" fill="white">
                        <use xlink:href="#path-1"></use>
                    </mask>
                    <g id="Clip-5"></g>
                    <polygon id="Fill-4" fill="#FFFFFF" mask="url(#mask-2)" points="-439 1845 383.854 1845 383.854 -885.6 -439 -885.6"></polygon>
                    <polygon id="Fill-6" fill="#FFFFFF" mask="url(#mask-2)" points="-2.195 27.197 27.583 27.197 27.583 -2.684 -2.195 -2.684"></polygon>
                </g>
                <g id="Group-11" transform="translate(18.000000, 34.600000)">
                    <mask id="mask-4" fill="white">
                        <use xlink:href="#path-3"></use>
                    </mask>
                    <g id="Clip-9"></g>
                    <polygon id="Stroke-8" stroke="#FFFFFF" stroke-width="0.77" mask="url(#mask-4)" points="-2.38 21.936 21.64 21.936 21.64 -2.167 -2.38 -2.167"></polygon>
                    <polygon id="Stroke-10" stroke="#FFFFFF" stroke-width="0.77" mask="url(#mask-4)" points="-354.712 1488.199 309.013 1488.199 309.013 -714.338 -354.712 -714.338"></polygon>
                </g>
                <path d="M20.3279,54.1065 C19.5959,54.1065 18.8969,53.7705 18.4569,53.1595 C18.0469,52.5615 17.9349,51.7675 18.1739,51.0755 L18.8079,49.3485 L18.8399,49.3135 L18.8689,49.2615 C19.6529,47.7915 20.9469,46.7305 22.5129,46.2715 L24.6649,45.6285 L23.2319,43.3365 C22.5609,42.2895 22.3039,41.0375 22.5049,39.8035 L22.6379,39.0175 C22.8819,37.6895 23.5999,36.5455 24.6579,35.8045 C25.5059,35.1865 26.5099,34.8625 27.5719,34.8625 C28.6369,34.8625 29.7199,35.2315 30.6219,35.9005 C31.5389,36.6265 32.2049,37.6705 32.4349,38.7565 L32.6459,39.6625 C32.9389,40.9295 32.6889,42.3465 31.9749,43.4495 L30.6269,45.5985 L32.7769,46.2415 C34.3389,46.7355 35.6649,47.8285 36.4109,49.2405 L36.4379,49.3035 L36.4609,49.3705 L37.0759,51.0955 C37.3289,51.7955 37.2209,52.5505 36.7879,53.1645 C36.3659,53.7735 35.6749,54.1065 34.9349,54.1065 L20.3279,54.1065 Z" id="Stroke-12" stroke="#FFFFFF" stroke-width="0.77"></path>
                <g id="Group-17" transform="translate(64.000000, 34.600000)">
                    <mask id="mask-6" fill="white">
                        <use xlink:href="#path-5"></use>
                    </mask>
                    <g id="Clip-15"></g>
                    <polygon id="Stroke-14" stroke="#FFFFFF" stroke-width="0.77" mask="url(#mask-6)" points="-2.252 21.936 21.768 21.936 21.768 -2.167 -2.252 -2.167"></polygon>
                    <polygon id="Stroke-16" stroke="#FFFFFF" stroke-width="0.77" mask="url(#mask-6)" points="-354.584 1488.199 309.141 1488.199 309.141 -714.338 -354.584 -714.338"></polygon>
                </g>
                <path d="M66.4557,54.1065 C65.7237,54.1065 65.0247,53.7705 64.5847,53.1595 C64.1747,52.5615 64.0627,51.7675 64.3017,51.0755 L64.9357,49.3485 L64.9677,49.3135 L64.9967,49.2615 C65.7807,47.7915 67.0747,46.7305 68.6407,46.2715 L70.7927,45.6285 L69.3597,43.3365 C68.6887,42.2895 68.4317,41.0375 68.6327,39.8035 L68.7657,39.0175 C69.0097,37.6895 69.7277,36.5455 70.7857,35.8045 C71.6337,35.1865 72.6377,34.8625 73.6997,34.8625 C74.7647,34.8625 75.8477,35.2315 76.7497,35.9005 C77.6667,36.6265 78.3327,37.6705 78.5627,38.7565 L78.7737,39.6625 C79.0667,40.9295 78.8167,42.3465 78.1027,43.4495 L76.7547,45.5985 L78.9047,46.2415 C80.4667,46.7355 81.7927,47.8285 82.5387,49.2405 L82.5657,49.3035 L82.5887,49.3705 L83.2037,51.0955 C83.4567,51.7955 83.3487,52.5505 82.9157,53.1645 C82.4937,53.7735 81.8027,54.1065 81.0627,54.1065 L66.4557,54.1065 Z" id="Stroke-18" stroke="#FFFFFF" stroke-width="0.77"></path>
                <g id="Group-23" transform="translate(75.000000, 62.600000)">
                    <mask id="mask-8" fill="white">
                        <use xlink:href="#path-7"></use>
                    </mask>
                    <g id="Clip-21"></g>
                    <polygon id="Stroke-20" stroke="#FFFFFF" stroke-width="0.547" mask="url(#mask-8)" points="-1.172 16.154 15.867 16.154 15.867 -0.944 -1.172 -0.944"></polygon>
                    <polygon id="Stroke-22" stroke="#FFFFFF" stroke-width="0.547" mask="url(#mask-8)" points="-251.105 1056.271 219.719 1056.271 219.719 -506.133 -251.105 -506.133"></polygon>
                </g>
                <path d="M77.1672,77.0307 C76.6482,77.0307 76.1522,76.7927 75.8402,76.3597 C75.5492,75.9347 75.4702,75.3717 75.6392,74.8807 L76.0892,73.6557 L76.1122,73.6307 L76.1322,73.5937 C76.6882,72.5517 77.6062,71.7987 78.7172,71.4727 L80.2432,71.0167 L79.2272,69.3907 C78.7512,68.6487 78.5692,67.7597 78.7112,66.8847 L78.8062,66.3267 C78.9792,65.3847 79.4882,64.5737 80.2392,64.0487 C80.8402,63.6097 81.5522,63.3797 82.3052,63.3797 C83.0612,63.3797 83.8302,63.6407 84.4692,64.1157 C85.1202,64.6307 85.5922,65.3717 85.7552,66.1417 L85.9052,66.7847 C86.1132,67.6837 85.9352,68.6887 85.4292,69.4707 L84.4732,70.9957 L85.9982,71.4517 C87.1062,71.8017 88.0472,72.5777 88.5762,73.5787 L88.5952,73.6237 L88.6112,73.6707 L89.0472,74.8947 C89.2272,75.3917 89.1512,75.9267 88.8432,76.3627 C88.5442,76.7947 88.0532,77.0307 87.5292,77.0307 L77.1672,77.0307 Z" id="Stroke-24" stroke="#FFFFFF" stroke-width="0.547"></path>
                <g id="Group-29" transform="translate(41.000000, 16.600000)">
                    <mask id="mask-10" fill="white">
                        <use xlink:href="#path-9"></use>
                    </mask>
                    <g id="Clip-27"></g>
                    <polygon id="Stroke-26" stroke="#FFFFFF" stroke-width="0.77" mask="url(#mask-10)" points="-2.316 22.257 21.704 22.257 21.704 -1.846 -2.316 -1.846"></polygon>
                    <polygon id="Stroke-28" stroke="#FFFFFF" stroke-width="0.77" mask="url(#mask-10)" points="-354.648 1488.52 309.077 1488.52 309.077 -714.017 -354.648 -714.017"></polygon>
                </g>
                <g id="Group-42" transform="translate(37.000000, 16.600000)" stroke="#FFFFFF">
                    <path d="M6.3918,19.8275 C5.6598,19.8275 4.9608,19.4915 4.5208,18.8805 C4.1108,18.2825 3.9988,17.4885 4.2378,16.7965 L4.8718,15.0695 L4.9038,15.0345 L4.9328,14.9825 C5.7168,13.5125 7.0108,12.4515 8.5768,11.9925 L10.7288,11.3495 L9.2958,9.0575 C8.6248,8.0105 8.3678,6.7585 8.5688,5.5245 L8.7018,4.7385 C8.9458,3.4105 9.6638,2.2665 10.7218,1.5255 C11.5698,0.9075 12.5738,0.5835 13.6358,0.5835 C14.7008,0.5835 15.7838,0.9525 16.6858,1.6215 C17.6028,2.3475 18.2688,3.3915 18.4988,4.4775 L18.7098,5.3825 C19.0028,6.6505 18.7528,8.0675 18.0388,9.1695 L16.6908,11.3195 L18.8408,11.9625 C20.4028,12.4565 21.7288,13.5495 22.4748,14.9615 L22.5018,15.0235 L22.5248,15.0915 L23.1398,16.8165 C23.3928,17.5165 23.2848,18.2715 22.8518,18.8855 C22.4298,19.4945 21.7388,19.8275 20.9988,19.8275 L6.3918,19.8275 Z" id="Stroke-30" stroke-width="0.77"></path>
                    <path d="M13.9063,22.9794 L13.9063,46.9794" id="Stroke-32" stroke-linecap="round"></path>
                    <path d="M0.575,38.8868 L10.392,47.9288" id="Stroke-34" stroke-width="0.843" stroke-linecap="round"></path>
                    <path d="M17.4256,47.9286 L27.2426,38.8866" id="Stroke-36" stroke-width="0.843" stroke-linecap="round"></path>
                    <path d="M21.2601,6.2792 L33.8251,16.5782" id="Stroke-38" stroke-width="0.843" stroke-linecap="round"></path>
                    <path d="M42.4702,38.9309 L45.1672,45.1079" id="Stroke-40" stroke-width="0.843" stroke-linecap="round"></path>
                </g>
            </g>
        </g>
    </g>
</svg>

<svg width="101" height="114" viewBox="0 0 101 114" xmlns="http://www.w3.org/2000/svg" xmlns:xlink="http://www.w3.org/1999/xlink"><title>NETWORK</title><defs><path d="M9.009 1.496c-1.311.919-2.201 2.336-2.504 3.982l-.164.976a6.223 6.223 0 0 0 .9 4.379l1.776 2.843-2.667.796c-1.942.57-3.545 1.885-4.517 3.706l-.036.066-.041.042-.786 2.142a2.946 2.946 0 0 0 .351 2.584 2.844 2.844 0 0 0 2.32 1.174H21.75c.918 0 1.774-.413 2.296-1.168a2.76 2.76 0 0 0 .358-2.565l-.763-2.14-.028-.083-.033-.077c-.925-1.751-2.569-3.106-4.504-3.718l-2.667-.797 1.672-2.665a6.23 6.23 0 0 0 .831-4.696l-.261-1.122c-.286-1.346-1.112-2.641-2.248-3.54C15.285.785 13.942.328 12.622.328a6.074 6.074 0 0 0-3.613 1.168z" id="a"/><path d="M6.658 1.205c-1.058.741-1.776 1.884-2.02 3.213l-.133.786a5.036 5.036 0 0 0 .726 3.533l1.433 2.292-2.152.643c-1.565.459-2.859 1.52-3.643 2.989l-.029.053-.032.034-.634 1.728a2.371 2.371 0 0 0 .283 2.084c.44.61 1.139.946 1.871.946h14.607c.74 0 1.431-.332 1.852-.941a2.228 2.228 0 0 0 .289-2.069l-.616-1.726-.022-.067-.026-.062c-.747-1.412-2.074-2.506-3.635-3l-2.151-.643 1.349-2.149a5.019 5.019 0 0 0 .67-3.787l-.21-.905c-.231-1.086-.896-2.131-1.814-2.857C11.72.631 10.637.263 9.572.263a4.897 4.897 0 0 0-2.914.942z" id="c"/><path d="M6.786 1.205c-1.058.741-1.776 1.884-2.02 3.213l-.133.786a5.026 5.026 0 0 0 .727 3.533l1.433 2.292-2.152.643c-1.566.459-2.861 1.52-3.644 2.989l-.029.053-.033.034-.633 1.728a2.374 2.374 0 0 0 .282 2.084c.441.61 1.14.946 1.872.946h14.606c.74 0 1.432-.332 1.854-.941a2.234 2.234 0 0 0 .288-2.069l-.616-1.726-.023-.067-.026-.062c-.747-1.412-2.072-2.506-3.634-3l-2.15-.643 1.348-2.149a5.024 5.024 0 0 0 .671-3.787l-.212-.905c-.23-1.086-.895-2.131-1.812-2.857C11.848.631 10.765.263 9.7.263a4.897 4.897 0 0 0-2.914.942z" id="e"/><path d="M5.239 1.448c-.751.526-1.26 1.337-1.433 2.279l-.094.558a3.566 3.566 0 0 0 .515 2.506l1.016 1.626-1.526.456a4.287 4.287 0 0 0-2.585 2.121l-.02.037-.023.024-.45 1.226A1.685 1.685 0 0 0 .84 13.76c.312.432.808.671 1.327.671h10.362a1.58 1.58 0 0 0 1.314-.668c.308-.435.384-.972.204-1.468l-.436-1.224-.016-.047-.018-.045a4.441 4.441 0 0 0-2.579-2.127l-1.525-.456.956-1.525a3.563 3.563 0 0 0 .476-2.687l-.15-.642c-.163-.771-.635-1.511-1.286-2.026A3.67 3.67 0 0 0 7.305.78a3.47 3.47 0 0 0-2.066.668z" id="g"/><path d="M6.722 1.526c-1.058.741-1.776 1.885-2.02 3.212l-.133.787a5.026 5.026 0 0 0 .727 3.533l1.432 2.291-2.152.644c-1.566.459-2.859 1.52-3.643 2.989l-.029.053-.033.034-.634 1.727a2.377 2.377 0 0 0 .284 2.085 2.29 2.29 0 0 0 1.871.946h14.606c.741 0 1.432-.333 1.853-.941.434-.615.542-1.37.288-2.069l-.614-1.726-.023-.067-.027-.062c-.746-1.413-2.073-2.506-3.634-3l-2.15-.642 1.348-2.15a5.024 5.024 0 0 0 .671-3.787l-.211-.905c-.231-1.086-.896-2.13-1.814-2.857C11.784.953 10.701.584 9.635.584a4.9 4.9 0 0 0-2.913.942z" id="i"/></defs><g fill="none" fill-rule="evenodd"><path fill="#00A9C7" d="M100.152 85.08L50.15 113.411.15 85.08V28.412l50-28.333 50 28.333z"/><path d="M41.641 89.785a2.843 2.843 0 0 1-2.32-1.173 2.944 2.944 0 0 1-.35-2.585l.785-2.14.04-.044.037-.065c.971-1.822 2.575-3.137 4.516-3.707l2.668-.796-1.776-2.842a6.237 6.237 0 0 1-.9-4.38l.164-.975c.303-1.646 1.192-3.064 2.504-3.982a6.075 6.075 0 0 1 3.612-1.168c1.321 0 2.664.456 3.781 1.286 1.138.9 1.963 2.195 2.25 3.541l.26 1.122c.364 1.572.054 3.328-.83 4.695l-1.673 2.665 2.666.797c1.936.612 3.58 1.968 4.505 3.72l.034.076.027.083.763 2.14a2.767 2.767 0 0 1-.357 2.565c-.523.754-1.38 1.167-2.297 1.167H41.641z" fill="#FFF"/><g transform="translate(38 65.6)"><mask id="b" fill="#fff"><use xlink:href="#a"/></mask><path fill="#FFF" mask="url(#b)" d="M-439 1845h822.854V-885.6H-439z"/><path fill="#FFF" mask="url(#b)" d="M-2.195 27.197h29.778V-2.684H-2.195z"/></g><g transform="translate(18 34.6)"><mask id="d" fill="#fff"><use xlink:href="#c"/></mask><path stroke="#FFF" stroke-width=".77" mask="url(#d)" d="M-2.38 21.936h24.02V-2.167H-2.38z"/><path stroke="#FFF" stroke-width=".77" mask="url(#d)" d="M-354.712 1488.199h663.725V-714.338h-663.725z"/></g><path d="M20.328 54.106a2.292 2.292 0 0 1-1.871-.947 2.371 2.371 0 0 1-.283-2.084l.634-1.727.032-.035.029-.052c.784-1.47 2.078-2.53 3.644-2.99l2.152-.642-1.433-2.292a5.03 5.03 0 0 1-.727-3.534l.133-.785c.244-1.328.962-2.473 2.02-3.214a4.904 4.904 0 0 1 2.914-.942c1.065 0 2.148.37 3.05 1.038.917.727 1.583 1.77 1.813 2.857l.21.906a5.024 5.024 0 0 1-.67 3.787l-1.348 2.148 2.15.644c1.562.494 2.888 1.587 3.634 2.998l.027.063.023.068.615 1.724c.253.7.145 1.456-.288 2.07-.422.608-1.113.941-1.853.941H20.328z" stroke="#FFF" stroke-width=".77"/><g transform="translate(64 34.6)"><mask id="f" fill="#fff"><use xlink:href="#e"/></mask><path stroke="#FFF" stroke-width=".77" mask="url(#f)" d="M-2.252 21.936h24.02V-2.167h-24.02z"/><path stroke="#FFF" stroke-width=".77" mask="url(#f)" d="M-354.584 1488.199h663.725V-714.338h-663.725z"/></g><path d="M66.456 54.106a2.292 2.292 0 0 1-1.871-.947 2.371 2.371 0 0 1-.283-2.084l.634-1.727.032-.035.029-.052c.784-1.47 2.078-2.53 3.644-2.99l2.152-.642-1.433-2.292a5.03 5.03 0 0 1-.727-3.534l.133-.785c.244-1.328.962-2.473 2.02-3.214a4.904 4.904 0 0 1 2.914-.942c1.065 0 2.148.37 3.05 1.038.917.727 1.583 1.77 1.813 2.857l.21.906a5.024 5.024 0 0 1-.67 3.787l-1.348 2.148 2.15.644c1.562.494 2.888 1.587 3.634 2.998l.027.063.023.068.615 1.724c.253.7.145 1.456-.288 2.07-.422.608-1.113.941-1.853.941H66.456z" stroke="#FFF" stroke-width=".77"/><g transform="translate(75 62.6)"><mask id="h" fill="#fff"><use xlink:href="#g"/></mask><path stroke="#FFF" stroke-width=".547" mask="url(#h)" d="M-1.172 16.154h17.039V-.944H-1.172z"/><path stroke="#FFF" stroke-width=".547" mask="url(#h)" d="M-251.105 1056.271h470.824V-506.133h-470.824z"/></g><path d="M77.167 77.03a1.626 1.626 0 0 1-1.327-.67 1.685 1.685 0 0 1-.2-1.48l.45-1.224.022-.025.02-.037a4.285 4.285 0 0 1 2.585-2.121l1.526-.456-1.016-1.626a3.57 3.57 0 0 1-.516-2.506l.095-.558c.173-.942.682-1.753 1.433-2.278a3.471 3.471 0 0 1 2.066-.67c.756 0 1.525.262 2.164.737.651.515 1.123 1.256 1.286 2.026l.15.643c.208.899.03 1.904-.476 2.686l-.956 1.525 1.525.456a4.44 4.44 0 0 1 2.578 2.127l.02.045.015.047.436 1.224c.18.497.104 1.032-.204 1.468-.299.432-.79.668-1.314.668H77.167z" stroke="#FFF" stroke-width=".547"/><g transform="translate(41 16.6)"><mask id="j" fill="#fff"><use xlink:href="#i"/></mask><path stroke="#FFF" stroke-width=".77" mask="url(#j)" d="M-2.316 22.257h24.02V-1.846h-24.02z"/><path stroke="#FFF" stroke-width=".77" mask="url(#j)" d="M-354.648 1488.52h663.725V-714.017h-663.725z"/></g><g stroke="#FFF"><path d="M43.392 36.428a2.292 2.292 0 0 1-1.871-.947 2.371 2.371 0 0 1-.283-2.084l.634-1.727.032-.036.029-.052c.784-1.47 2.078-2.53 3.644-2.99l2.152-.642-1.433-2.293a5.03 5.03 0 0 1-.727-3.533l.133-.786c.244-1.328.962-2.472 2.02-3.213a4.904 4.904 0 0 1 2.914-.942c1.065 0 2.148.37 3.05 1.038.917.726 1.583 1.77 1.813 2.856l.21.905a5.023 5.023 0 0 1-.67 3.787l-1.348 2.15 2.15.643c1.562.494 2.888 1.587 3.634 3l.027.061.023.068.615 1.726c.253.7.145 1.454-.288 2.068-.422.61-1.113.943-1.853.943H43.392z" stroke-width=".77"/><path d="M50.906 39.58v24" stroke-linecap="round"/><path d="M37.575 55.487l9.817 9.042M54.426 64.529l9.817-9.042M58.26 22.88l12.565 10.298M79.47 55.53l2.697 6.178" stroke-width=".843" stroke-linecap="round"/></g></g></svg>
